X:1
T:Vera doce
T:Daniel Friderici
T:Source : Bicinia sacra---Rostock---J.Richelius---1642. Editor :  André Vierendeels (14/07/17).
T:Notes : Original clefs : C1, C1 Editorial accidentals above the staff 
T:Vera doce
T:©
T:©
T:©
C:Daniel Friderici
Z:©
%%score [ 1 2 ]
L:1/8
Q:1/4=120
M:2/2
K:C
V:1 treble nm="Soprano 1" snm="S 1"
V:2 treble nm="Soprano 2" snm="S 2"
V:1
 G4 G4 | CDEF GABc | dB c3 B/A/ B2 | c2 CD EF G2- | G2 A2 G4 | CDEF GA B2- | B2 c4 B2 | c3 B A4 | %8
w: Ve- ra|do- * * * * * * *||ce, ve- * * * *|* ra do-|ce, _ _ _ _ _ _|_ ve- ra|do- * *|
 G4 A2 G2 | F4 E2 D2- | D2 C2 G4 | C4 z2 c2 | B2 G2 A2 B2 | c4 z2 B2 | c2 G2 A2 B2 | c2 BA B2 c2 | %16
w: ce, ve- ra|do- ce, ve-|* ra do-|ce, et|con- stans Ba- pti-|stae, et|con stans Ba- pti-|* * * stae, ex-|
 d4 e2 e2 | d2 c2 B2 A2 | G2 A2 B2 c2 | d4 e4 | d8 | c8 :: z4 c4 | A3 A G2 E2 | F3 F E2 G2 | %25
w: em- pla se-|qua- * * *||||ris:|nec|me- tu- as, nec|me- tu- as, nec|
 A3 A G2 A2 | B3 B c2 c2 | GFGA G2 G2 | C2 c2 B2 A2 | G2 A2 B2 c2 | d4 G2 F2 | E2 D2 C2 D2 | %32
w: me- tu- as, nec|me- tu- as, nec|me- * * * * tu-|as, ve- ra pro|pi- e- ta- te|mo- ri, ve-|ra pro- pi- e-|
 E2 F2 G4 | C4 c2 B2 | A2 G2 F2 E2 | D2 C2 D2 E2 | F2 G2 A2 G2 | F2 ED E2 DC | D8 | C8 :| %40
w: ta- te mo-|ri, mo- *||||||ri.|
V:2
 z8 | z8 | G4 G4 | CDEF GABc | dB c3 B/A/ B2 | c2 CD EF G2- | G2 A2 G4 | C4 z2 c2- | c2 B2 c3 B | %9
w: ||Ve- ra|do- * * * * * * *||ce, ve- * * * *|* ra do-|ce, ve-|* ra do- *|
 A4 G2 F2- | F2 E2 CDEF | G4 C4 | z2 G2 F2 D2 | E2 F2 G4 | z2 E2 F2 D2 | CDEF G2 A2 | G2 G2 c4 | %17
w: * ce, ve-|* ra do- * * *|* ce,|et con stans|Ba- pti- stae,|et con- stans|Ba- * * * * pti-|stae, ex- em-|
 B2 e2 d2 c2 | B2 A2 G2 A2 | B2 G2 c4- | c2 BA B4 | c8 :: z4 C4 | F3 F C2 G2 | A3 A G2 E2 | %25
w: pla se qua- *||||ris:|nec|me- tu- as, nec|me- tu- as, nec|
 F3 F E2 F2 | D3 D C2 C2 | BABc d2 d2 | e4 z2 c2 | B2 A2 G2 A2 | B2 c2 d4 | G2 F2 E2 D2 | %32
w: me- tu- as, nec|me- tu- as, nec|me- * * * * tu-|as, ve-|ra pro pi- e-|ta- te mo-|ri, ve- ra pro|
 C2 D2 E2 F2 | G4 C4 | c2 B2 A2 G2 | F2 E2 D2 C2 | D2 E2 F2 G2 | A2 B2 c4- | c2 BA B4 | c8 :| %40
w: pi- e- ta- te|mo- ri,|mo- * * *|||||ri.|

